packages/ffe-icons/icons/filled/sm/stream.svg

<svg xmlns="http://www.w3.org/2000/svg" height="20" viewBox="0 -960 960 960" width="20"><path d="M167.788-418.001q-25.942 0-43.864-18.135-17.923-18.135-17.923-44.076 0-25.942 18.135-43.864 18.135-17.923 44.076-17.923 25.942 0 43.864 18.135 17.923 18.135 17.923 44.076 0 25.942-18.135 43.864-18.135 17.923-44.076 17.923Zm48.214 164.846 118.843-118.843q8.386-8.386 17.963-8.078 9.576.307 18.268 9 8.693 8.692 8.693 18.576t-8.771 18.655L252.155-215.002q-8.386 8.386-17.963 8.078-9.576-.307-18.268-9-8.693-8.692-8.693-18.576t8.771-18.655Zm118.764-335.847L215.081-707.845q-8.465-8.386-8.157-17.963.307-9.576 9-18.268 8.692-8.693 18.576-8.693t18.655 8.771l118.843 118.843q8.386 8.386 8.578 17.963.193 9.576-8.5 18.268-8.692 8.693-18.576 8.693t-18.734-8.771Zm145.022 483.001q-25.942 0-43.864-18.135-17.923-18.135-17.923-44.076 0-25.942 18.135-43.864 18.135-17.923 44.076-17.923 25.942 0 43.864 18.135 17.923 18.135 17.923 44.076 0 25.942-18.135 43.864-18.135 17.923-44.076 17.923Zm0-624q-25.942 0-43.864-18.135-17.923-18.135-17.923-44.076 0-25.942 18.135-43.864 18.135-17.923 44.076-17.923 25.942 0 43.864 18.135 17.923 18.135 17.923 44.076 0 25.942-18.135 43.864-18.135 17.923-44.076 17.923Zm109.136 103.925 119.084-118.915q8.223-8.393 17.992-7.893 9.769.5 18.076 8.808 8.693 8.692 8.693 18.576t-8.693 18.576L624.692-588.308q-7.923 7.923-17.692 7.615-9.769-.308-18.555-8.615-8.214-8.308-8.021-18.384.192-10.077 8.5-18.384Zm118.842 410.074L588.081-334.845q-8.465-8.386-8.157-17.963.307-9.576 9-18.268 8.692-8.693 18.576-8.693t18.655 8.771l118.843 118.843q8.386 8.386 8.578 17.963.193 9.576-8.5 18.268-8.692 8.693-18.576 8.693t-18.734-8.771Zm84.022-201.999q-25.942 0-43.864-18.135-17.923-18.135-17.923-44.076 0-25.942 18.135-43.864 18.135-17.923 44.076-17.923 25.942 0 43.864 18.135 17.923 18.135 17.923 44.076 0 25.942-18.135 43.864-18.135 17.923-44.076 17.923Z"/></svg>

<svg xmlns="http://www.w3.org/2000/svg" height="20" viewBox="0 -960 960 960" width="20"><path d="M167.79-418q-25.94 0-43.87-18.14Q106-454.27 106-480.21t18.14-43.87Q142.27-542 168.21-542t43.87 18.14Q230-505.73 230-479.79t-18.14 43.87Q193.73-418 167.79-418ZM216-253.15 334.85-372q8.38-8.38 17.96-8.08 9.57.31 18.27 9 8.69 8.7 8.69 18.58 0 9.88-8.77 18.65L252.15-215q-8.38 8.38-17.96 8.08-9.57-.31-18.27-9-8.69-8.7-8.69-18.58 0-9.88 8.77-18.65ZM334.77-589 215.08-707.85q-8.46-8.38-8.16-17.96.31-9.57 9-18.27 8.7-8.69 18.58-8.69 9.88 0 18.65 8.77L372-625.15q8.38 8.38 8.58 17.96.19 9.57-8.5 18.27-8.7 8.69-18.58 8.69-9.88 0-18.73-8.77Zm145.02 483q-25.94 0-43.87-18.14Q418-142.27 418-168.21t18.14-43.87Q454.27-230 480.21-230t43.87 18.14Q542-193.73 542-167.79t-18.14 43.87Q505.73-106 479.79-106Zm0-624q-25.94 0-43.87-18.14Q418-766.27 418-792.21t18.14-43.87Q454.27-854 480.21-854t43.87 18.14Q542-817.73 542-791.79t-18.14 43.87Q505.73-730 479.79-730Zm109.13 103.92 119.09-118.91q8.22-8.39 17.99-7.89 9.77.5 18.08 8.8 8.69 8.7 8.69 18.58 0 9.88-8.69 18.58L624.69-588.31q-7.92 7.92-17.69 7.62-9.77-.31-18.55-8.62-8.22-8.31-8.03-18.38.2-10.08 8.5-18.39ZM707.77-216 588.08-334.85q-8.46-8.38-8.16-17.96.31-9.57 9-18.27 8.7-8.69 18.58-8.69 9.88 0 18.65 8.77L745-252.15q8.38 8.38 8.58 17.96.19 9.57-8.5 18.27-8.7 8.69-18.58 8.69-9.88 0-18.73-8.77Zm84.02-202q-25.94 0-43.87-18.14Q730-454.27 730-480.21t18.14-43.87Q766.27-542 792.21-542t43.87 18.14Q854-505.73 854-479.79t-18.14 43.87Q817.73-418 791.79-418Z"/></svg>
